gtk/icons/scalable/actions/system-run-symbolic.svg

<svg width='16' height='16'
     xmlns:gpa='https://www.gtk.org/grappa'
     gpa:version='1'
     gpa:keywords='cog peg wheel cogged pegged system run execute exec'
     gpa:state='0'>
  <path d='M 9.5 10.0710001 L 9.5 11.5 M 9.5 10.0710001 C 10.2930002 10.0710001, 11.0249996 9.81200027, 11.6169996 9.3739996 M 9.5 10.0710001 C 8.70699978 10.0710001, 7.9749999 9.81200027, 7.3829999 9.3739996 M 9.5 2.9289999 L 9.5 1.5 M 9.5 2.9289999 C 10.2930002 2.9289999, 11.0249996 3.18799996, 11.6169996 3.62599993 M 9.5 2.9289999 C 8.70699978 2.9289999, 7.9749999 3.18799996, 7.3829999 3.62599993 M 11.6169996 3.62599993 L 12.4280005 2.45700002 M 11.618 3.62599993 C 12.2175016 4.06999969, 12.6632748 4.69023705, 12.8929996 5.4000001 M 7.3829999 3.62599993 L 6.57600021 2.45700002 M 7.3829999 3.62599993 C 6.78270769 4.06965256, 6.33619928 4.6899395, 6.10599995 5.4000001 M 11.6169996 9.3739996 L 12.4280005 10.5500002 M 11.618 9.3739996 C 12.2175007 8.93000031, 12.6632748 8.30976295, 12.8929996 7.5999999 M 7.3829999 9.3739996 L 6.57600021 10.5500002 M 7.3829999 9.3739996 C 6.78270817 8.93034744, 6.33619976 8.3100605, 6.10599995 7.5999999 M 6.10599995 5.4000001 L 4.75 4.95699978 M 6.10599995 5.4000001 C 5.87699986 6.11000013, 5.87699986 6.88999987, 6.10599995 7.5999999 M 6.10599995 7.5999999 L 4.75 8.05000019 M 12.8940001 7.5999999 L 14.25 8.05000019 M 12.8940001 7.5999999 C 13.1230001 6.88999987, 13.1230001 6.11000013, 12.8940001 5.4000001 M 12.8940001 5.4000001 L 14.25 4.95699978'
        id='path0'
        stroke-width='2'
        stroke-linecap='round'
        stroke-linejoin='round'
        stroke='rgb(0,0,0)'
        fill='none'
        class='foreground-stroke transparent-fill'/>
  <path d='M 4 12.5 C 4 13.3284273, 3.32842708 14, 2.5 14 C 1.67157292 14, 1 13.3284273, 1 12.5 C 1 11.6715727, 1.67157292 11, 2.5 11 C 3.32842708 11, 4 11.6715727, 4 12.5 Z'
        id='path1'
        stroke-width='2'
        stroke-linecap='round'
        stroke-linejoin='round'
        stroke='rgb(0,0,0)'
        fill='none'
        class='foreground-stroke transparent-fill'/>
</svg>

<svg xmlns="http://www.w3.org/2000/svg" width="16" height="16" fill="none">
  <path class="foreground-stroke transparent-fill" stroke="#241F30" stroke-linecap="round" stroke-linejoin="round" stroke-width="2" d="M9.5 10.071V11.5m0-1.429c.793 0 1.525-.259 2.117-.697m-2.117.697c-.793 0-1.525-.259-2.117-.697M9.5 2.929V1.5m0 1.429c.793 0 1.525.259 2.117.697M9.5 2.929c-.793 0-1.525.259-2.117.697m4.234 0 .811-1.169m-.81 1.169A3.579 3.579 0 0 1 12.893 5.4M7.383 3.626l-.807-1.169m.807 1.169A3.578 3.578 0 0 0 6.106 5.4m5.511 3.974.811 1.176m-.81-1.176A3.579 3.579 0 0 0 12.893 7.6M7.383 9.374l-.807 1.176m.807-1.176A3.578 3.578 0 0 1 6.106 7.6m0-2.2L4.75 4.957m1.356.443c-.229.71-.229 1.49 0 2.2m0 0-1.356.45m8.144-.45 1.356.45m-1.356-.45c.229-.71.229-1.49 0-2.2m0 0 1.356-.443"/>
  <path class="foreground-stroke transparent-fill" stroke="#241F30" stroke-width="2" d="M4 12.5a1.5 1.5 0 1 1-3 0 1.5 1.5 0 0 1 3 0Z"/>
</svg>
